X: 05014
T: CHAPIN STREET
C: Bob McQuillen 24 Nov 80
B: Bob's Note Book 5 #14
%R: polka, reel
Z: 2021 John Chambers <jc:trillian.mit.edu>
M: C
L: 1/8
K: G
B,C \
| D2D2 CEDC | B,2G,2 G,A,B,C | DEFG A2c2 | B2 G4 DD || G2G2 A2BA | GABc d2Bd | e2d2 c2Bc | B2 A4 Bc |
| d2d2 c2dc | Bcde d2ed | cBAG A2G2 | FGAF D2D2 || GABG A2Bc | dged c2de | dBGc BGA2 | G6 |]
[| d2 \
| g2g2 agfe | d2B2 B2dd | g2g2 a2ba | g6 dd || g2g2 agfe | d2ga bagb | a2ga g2f2 | g6 gf |
| e2fg agfe | d2g2 d2ga | b2gf e2ag | fgfe dcBc || d2g2 fgaf | g2d2Bcd2 | bagb a3g | g6 |]
%%begintext align
%% This tune is for our
%% friendly caller - musician Rich Blazeh (pro. Blazay)
%% who at the time, lived there. Now he lives on Tyler St.,
%% still in Brattleboro, VT. By the time this gets printed,
%% I don't know where the hell he'll be. But it's following
%% you with fondest Best Wishes, Rich, no matter what![slashed out] _where_!
%%endtext

%%sep 1 1 500

%%sep 1 1 500

